svgs/sharp-regular/binary-lock.svg

<svg xmlns="http://www.w3.org/2000/svg" viewBox="0 0 640 512"><!--! Font Awesome Pro 6.6.0 by @fontawesome - https://fontawesome.com License - https://fontawesome.com/license (Commercial License) Copyright 2024 Fonticons, Inc. --><path d="M224 0l0 48 24 0 32 0 0 128-32 0-24 0 0 48 24 0 56 0 56 0 24 0 0-48-24 0-32 0 0-152 0-24L304 0 248 0 224 0zM0 288l0 48 24 0 32 0 0 128-32 0L0 464l0 48 24 0 56 0 56 0 24 0 0-48-24 0-32 0 0-152 0-24-24 0-56 0L0 288zM24 0L0 0 0 24 0 200l0 24 24 0 144 0 24 0 0-24 0-176 0-24L168 0 24 0zM48 176L48 48l96 0 0 128-96 0zM192 288l0 24 0 176 0 24 24 0 144 0 24 0 0-24 0-176 0-24-24 0-144 0-24 0zm48 48l96 0 0 128-96 0 0-128zm288-96c17.7 0 32 14.3 32 32l0 48-64 0 0-48c0-17.7 14.3-32 32-32zm-80 32l0 48-32 0 0 192 224 0 0-192-32 0 0-48c0-44.2-35.8-80-80-80s-80 35.8-80 80z"/></svg>

<svg xmlns="http://www.w3.org/2000/svg" viewBox="0 0 640 512"><!--! Font Awesome Pro 6.4.0 by @fontawesome - https://fontawesome.com License - https://fontawesome.com/license (Commercial License) Copyright 2023 Fonticons, Inc. --><path d="M224 0V48h24 32V176H248 224v48h24 56 56 24V176H360 328V24 0H304 248 224zM0 288v48H24 56V464H24 0v48H24 80h56 24V464H136 104V312 288H80 24 0zM24 0H0V24 200v24H24 168h24V200 24 0H168 24zM48 176V48h96V176H48zM192 288v24V488v24h24H360h24V488 312 288H360 216 192zm48 48h96V464H240V336zm288-96c17.7 0 32 14.3 32 32v48H496V272c0-17.7 14.3-32 32-32zm-80 32v48H416V512H640V320H608V272c0-44.2-35.8-80-80-80s-80 35.8-80 80z"/></svg>
